;FLAVOR:UltiGCode
;TIME:19190
;MATERIAL:35385
;MATERIAL2:0
;NOZZLE_DIAMETER:0.4
;MINX:39.625
;MINY:39.625
;MINZ:0.27
;MAXX:183.375
;MAXY:183.375
;MAXZ:4.02
;Generated with Cura_SteamEngine master
M82 ;absolute extrusion mode
G0 F3000 Y50 ;avoid prime blob
G92 E0
G92 E0
G10
;LAYER_COUNT:26
;LAYER:0
M107
G0 F4500 X42.443 Y42.598 Z0.27
;TYPE:SKIRT
G11
G1 F1800 X43.017 Y42.051 E0.07493
G1 X43.583 Y41.6 E0.14332
G1 X44.511 Y40.984 E0.24858
G1 X44.767 Y40.839 E0.27638
G1 X45.807 Y40.346 E0.38514
G1 X46.081 Y40.24 E0.41291
G1 X46.834 Y39.992 E0.48783
G1 X47.527 Y39.829 E0.5551
G1 X48.704 Y39.663 E0.66743
G1 X49.046 Y39.641 E0.69981
G1 X49.552 Y39.625 E0.74765
G1 X173.593 Y39.626 E12.46953
G1 X174.415 Y39.669 E12.54731
G1 X174.615 Y39.69 E12.56632
G1 X175.507 Y39.836 E12.65173
G1 X175.794 Y39.9 E12.67952
G1 X176.912 Y40.238 E12.7899
G1 X177.187 Y40.344 E12.81775
G1 X178.212 Y40.826 E12.92478
G1 X178.463 Y40.967 E12.95199
G1 X179.293 Y41.505 E13.04546
G1 X179.455 Y41.625 E13.06451
G1 X180.188 Y42.24 E13.15493
G1 X180.402 Y42.443 E13.18281
G1 X180.949 Y43.017 E13.25774
G1 X181.4 Y43.583 E13.32613
G1 X182.016 Y44.511 E13.43138
G1 X182.161 Y44.767 E13.45919
G1 X182.65 Y45.798 E13.56702
G1 X182.756 Y46.071 E13.5947
G1 X183.006 Y46.824 E13.66967
G1 X183.172 Y47.533 E13.73849
G1 X183.337 Y48.704 E13.85024
G1 X183.359 Y49.046 E13.88262
G1 X183.375 Y49.552 E13.93046
G1 X183.374 Y173.593 E25.65234
G1 X183.331 Y174.415 E25.73012
G1 X183.31 Y174.615 E25.74913
G1 X183.164 Y175.507 E25.83454
G1 X183.1 Y175.794 E25.86233
G1 X182.767 Y176.9 E25.97148
G1 X182.66 Y177.179 E25.99972
G1 X182.158 Y178.242 E26.11081
G1 X182.018 Y178.489 E26.13764
G1 X181.495 Y179.293 E26.22828
G1 X181.375 Y179.455 E26.24733
G1 X180.76 Y180.188 E26.33775
G1 X180.557 Y180.402 E26.36563
G1 X179.679 Y181.198 E26.47762
G1 X179.445 Y181.38 E26.50563
G1 X178.482 Y182.021 E26.61496
G1 X178.227 Y182.165 E26.64263
G1 X177.196 Y182.653 E26.75042
G1 X176.922 Y182.759 E26.77818
G1 X175.789 Y183.101 E26.89002
G1 X175.501 Y183.165 E26.9179
G1 X174.58 Y183.314 E27.00607
G1 X174.381 Y183.334 E27.02497
G1 X173.702 Y183.372 E27.08924
G1 X173.448 Y183.375 E27.11324
G1 X49.407 Y183.374 E38.83512
G1 X48.585 Y183.331 E38.9129
G1 X48.385 Y183.31 E38.93191
G1 X47.493 Y183.164 E39.01732
G1 X47.206 Y183.1 E39.04511
G1 X46.088 Y182.762 E39.15548
G1 X45.813 Y182.656 E39.18333
G1 X44.788 Y182.174 E39.29037
G1 X44.537 Y182.033 E39.31758
G1 X43.548 Y181.375 E39.42983
G1 X43.311 Y181.19 E39.45824
G1 X42.47 Y180.43 E39.56536
G1 X42.265 Y180.216 E39.59337
G1 X41.746 Y179.616 E39.66834
G1 X41.4 Y179.136 E39.72425
G1 X41.184 Y178.812 E39.76105
G1 X40.777 Y178.131 E39.83602
G1 X40.527 Y177.613 E39.89038
G1 X40.407 Y177.34 E39.91856
G1 X40.037 Y176.309 E40.02207
G1 X39.958 Y176.029 E40.04956
G1 X39.781 Y175.256 E40.1245
G1 X39.683 Y174.536 E40.19317
G1 X39.628 Y173.703 E40.27206
G1 X39.625 Y173.448 E40.29616
G1 X39.625 Y49.525 E52.00688
G1 X39.643 Y48.948 E52.06144
G1 X39.75 Y47.961 E52.15525
G1 X39.8 Y47.672 E52.18297
G1 X40.073 Y46.573 E52.28998
G1 X40.164 Y46.294 E52.31771
G1 X40.448 Y45.553 E52.39271
G1 X40.699 Y45.036 E52.44702
G1 X40.881 Y44.694 E52.48363
G1 X41.505 Y43.707 E52.59398
G1 X41.625 Y43.545 E52.61303
G1 X42.24 Y42.812 E52.70345
G1 X42.443 Y42.598 E52.73132
G0 F4500 X42.697 Y42.839
G1 F1800 X43.259 Y42.305 E52.80458
G1 X43.797 Y41.877 E52.86955
G1 X44.683 Y41.288 E52.97009
G1 X44.939 Y41.143 E52.99789
G1 X45.933 Y40.673 E53.1018
G1 X46.207 Y40.567 E53.12956
G1 X47.314 Y40.234 E53.2388
G1 X47.602 Y40.171 E53.26666
G1 X48.727 Y40.013 E53.37402
G1 X49.552 Y39.975 E53.45206
G1 X173.593 Y39.976 E65.17394
G1 X174.379 Y40.017 E65.24831
G1 X174.579 Y40.038 E65.26732
G1 X175.431 Y40.177 E65.3489
G1 X175.718 Y40.241 E65.37668
G1 X176.786 Y40.565 E65.48215
G1 X177.061 Y40.671 E65.51
G1 X178.04 Y41.131 E65.61222
G1 X178.291 Y41.272 E65.63943
G1 X179.085 Y41.786 E65.72881
G1 X179.247 Y41.906 E65.74786
G1 X179.947 Y42.494 E65.83425
G1 X180.161 Y42.697 E65.86213
G1 X180.695 Y43.259 E65.93539
G1 X181.123 Y43.797 E66.00035
G1 X181.712 Y44.683 E66.10089
G1 X181.857 Y44.939 E66.1287
G1 X182.324 Y45.924 E66.23171
G1 X182.43 Y46.197 E66.25939
G1 X182.673 Y46.934 E66.33272
G1 X182.83 Y47.607 E66.39803
G1 X182.987 Y48.727 E66.5049
G1 X183.025 Y49.552 E66.58295
G1 X183.024 Y173.593 E78.30482
G1 X182.983 Y174.379 E78.3792
G1 X182.962 Y174.579 E78.3982
G1 X182.823 Y175.431 E78.47978
G1 X182.759 Y175.718 E78.50757
G1 X182.44 Y176.775 E78.61191
G1 X182.333 Y177.054 E78.64014
G1 X181.854 Y178.07 E78.74629
G1 X181.714 Y178.317 E78.77312
G1 X181.214 Y179.085 E78.85972
G1 X181.094 Y179.247 E78.87878
G1 X180.506 Y179.947 E78.96517
G1 X180.303 Y180.161 E78.99304
G1 X179.464 Y180.922 E79.10008
G1 X179.23 Y181.104 E79.1281
G1 X178.31 Y181.716 E79.23252
G1 X178.055 Y181.86 E79.26019
G1 X177.07 Y182.326 E79.36316
G1 X176.796 Y182.432 E79.39093
G1 X175.713 Y182.76 E79.49786
G1 X175.425 Y182.824 E79.52574
G1 X174.545 Y182.965 E79.60996
G1 X174.346 Y182.985 E79.62886
G1 X173.697 Y183.022 E79.69029
G1 X173.448 Y183.025 E79.71382
G1 X49.407 Y183.024 E91.4357
G1 X48.621 Y182.983 E91.51008
G1 X48.421 Y182.962 E91.52908
G1 X47.569 Y182.823 E91.61066
G1 X47.282 Y182.759 E91.63845
G1 X46.214 Y182.435 E91.74391
G1 X45.939 Y182.329 E91.77177
G1 X44.96 Y181.869 E91.87398
G1 X44.709 Y181.728 E91.90119
G1 X43.764 Y181.099 E92.00847
G1 X43.527 Y180.914 E92.03688
G1 X42.723 Y180.187 E92.13931
G1 X42.518 Y179.973 E92.16732
G1 X42.011 Y179.386 E92.24061
G1 X41.691 Y178.942 E92.29233
G1 X41.475 Y178.618 E92.32913
G1 X41.078 Y177.951 E92.40248
G1 X40.847 Y177.472 E92.45274
G1 X40.727 Y177.199 E92.48092
G1 X40.374 Y176.214 E92.5798
G1 X40.295 Y175.934 E92.60729
G1 X40.123 Y175.178 E92.68056
G1 X40.03 Y174.495 E92.7457
G1 X39.978 Y173.699 E92.82108
G1 X39.975 Y173.448 E92.8448
G1 X39.975 Y49.525 E104.55553
G1 X39.993 Y48.964 E104.60857
G1 X40.095 Y48.021 E104.6982
G1 X40.145 Y47.732 E104.72592
G1 X40.406 Y46.682 E104.82816
G1 X40.497 Y46.403 E104.85589
G1 X40.775 Y45.679 E104.92918
G1 X41.008 Y45.201 E104.97943
G1 X41.19 Y44.859 E105.01604
G1 X41.786 Y43.915 E105.12154
G1 X41.906 Y43.753 E105.1406
G1 X42.494 Y43.053 E105.22699
G1 X42.697 Y42.839 E105.25486
G0 F4500 X42.95 Y43.08
G1 F1800 X43.774 Y42.336 E105.35977
G1 X44.01 Y42.154 E105.38794
G1 X44.856 Y41.593 E105.48386
G1 X45.112 Y41.448 E105.51167
G1 X46.059 Y40.999 E105.61071
G1 X46.333 Y40.893 E105.63847
G1 X47.389 Y40.576 E105.74266
G1 X47.677 Y40.513 E105.77052
G1 X48.749 Y40.362 E105.87283
G1 X49.552 Y40.325 E105.94879
G1 X173.593 Y40.326 E117.67066
G1 X174.342 Y40.365 E117.74154
G1 X174.542 Y40.386 E117.76055
G1 X175.355 Y40.519 E117.83839
G1 X175.642 Y40.583 E117.86618
G1 X176.661 Y40.891 E117.96678
G1 X176.936 Y40.997 E117.99463
G1 X177.869 Y41.436 E118.09207
G1 X178.12 Y41.577 E118.11928
G1 X178.877 Y42.067 E118.20449
G1 X179.039 Y42.187 E118.22355
G1 X179.706 Y42.747 E118.30585
G1 X179.92 Y42.95 E118.33372
G1 X180.664 Y43.774 E118.43863
G1 X180.846 Y44.01 E118.4668
G1 X181.407 Y44.856 E118.56272
G1 X181.552 Y45.112 E118.59053
G1 X181.998 Y46.051 E118.68876
G1 X182.104 Y46.324 E118.71644
G1 X182.425 Y47.393 E118.82192
G1 X182.488 Y47.682 E118.84987
G1 X182.638 Y48.749 E118.95169
G1 X182.675 Y49.552 E119.02765
G1 X182.674 Y173.593 E130.74953
G1 X182.635 Y174.342 E130.8204
G1 X182.614 Y174.542 E130.83941
G1 X182.481 Y175.355 E130.91726
G1 X182.417 Y175.642 E130.94505
G1 X182.113 Y176.649 E131.04445
G1 X182.006 Y176.928 E131.07269
G1 X181.549 Y177.897 E131.17393
G1 X181.409 Y178.144 E131.20076
G1 X180.933 Y178.877 E131.28335
G1 X180.813 Y179.039 E131.30241
G1 X180.253 Y179.706 E131.38471
G1 X180.05 Y179.92 E131.41258
G1 X179.249 Y180.646 E131.51474
G1 X179.015 Y180.828 E131.54275
G1 X178.138 Y181.412 E131.64232
G1 X177.883 Y181.556 E131.67
G1 X176.944 Y182 E131.76815
G1 X176.67 Y182.106 E131.79592
G1 X175.637 Y182.418 E131.89789
G1 X175.349 Y182.482 E131.92577
G1 X174.51 Y182.617 E132.00608
G1 X174.311 Y182.637 E132.02498
G1 X173.692 Y182.672 E132.08357
G1 X173.448 Y182.675 E132.10663
G1 X49.407 Y182.674 E143.8285
G1 X48.658 Y182.635 E143.89938
G1 X48.458 Y182.614 E143.91838
G1 X47.645 Y182.481 E143.99623
G1 X47.358 Y182.417 E144.02402
G1 X46.339 Y182.109 E144.12462
G1 X46.064 Y182.003 E144.15247
G1 X45.131 Y181.564 E144.24991
G1 X44.88 Y181.423 E144.27711
G1 X43.979 Y180.823 E144.37941
G1 X43.742 Y180.638 E144.40782
G1 X42.976 Y179.945 E144.50544
G1 X42.771 Y179.731 E144.53344
G1 X42.276 Y179.158 E144.605
G1 X41.982 Y178.748 E144.65267
G1 X41.766 Y178.424 E144.68947
G1 X41.38 Y177.773 E144.76099
G1 X41.048 Y177.058 E144.83549
G1 X40.711 Y176.119 E144.92977
G1 X40.632 Y175.839 E144.95726
G1 X40.413 Y174.745 E145.06269
G1 X40.378 Y174.453 E145.09048
G1 X40.328 Y173.694 E145.16237
G1 X40.325 Y173.448 E145.18561
G1 X40.325 Y49.525 E156.89634
G1 X40.342 Y48.98 E156.94787
G1 X40.44 Y48.081 E157.03332
G1 X40.49 Y47.792 E157.06104
G1 X40.739 Y46.79 E157.15861
G1 X40.83 Y46.511 E157.18634
G1 X41.102 Y45.804 E157.25793
G1 X41.499 Y45.023 E157.34072
G1 X42.067 Y44.123 E157.44129
G1 X42.187 Y43.961 E157.46034
G1 X42.747 Y43.294 E157.54264
G1 X42.95 Y43.08 E157.57052
G0 F4500 X43.204 Y43.321
G1 F1800 X43.988 Y42.613 E157.67034
G1 X44.224 Y42.431 E157.69851
G1 X45.028 Y41.897 E157.78972
G1 X45.284 Y41.752 E157.81752
G1 X46.186 Y41.326 E157.91179
G1 X46.46 Y41.22 E157.93955
G1 X47.464 Y40.918 E158.03863
G1 X47.752 Y40.855 E158.06649
G1 X48.772 Y40.711 E158.16383
G1 X49.552 Y40.675 E158.23762
G1 X173.593 Y40.676 E169.9595
G1 X174.306 Y40.713 E170.02697
G1 X174.506 Y40.734 E170.04597
G1 X175.278 Y40.861 E170.1199
G1 X175.565 Y40.925 E170.14769
G1 X176.535 Y41.218 E170.24345
G1 X176.81 Y41.324 E170.2713
G1 X177.698 Y41.742 E170.36405
G1 X177.949 Y41.883 E170.39125
G1 X178.668 Y42.349 E170.47222
G1 X178.83 Y42.469 E170.49127
G1 X179.465 Y43.001 E170.56956
G1 X179.679 Y43.204 E170.59743
G1 X180.387 Y43.988 E170.69726
G1 X180.569 Y44.224 E170.72542
G1 X181.103 Y45.028 E170.81663
G1 X181.248 Y45.284 E170.84443
G1 X181.671 Y46.178 E170.9379
G1 X181.777 Y46.451 E170.96557
G1 X182.083 Y47.467 E171.06584
G1 X182.146 Y47.756 E171.0938
G1 X182.289 Y48.772 E171.19075
G1 X182.325 Y49.552 E171.26454
G1 X182.324 Y173.593 E182.98642
G1 X182.287 Y174.306 E183.05389
G1 X182.266 Y174.506 E183.07289
G1 X182.139 Y175.278 E183.14682
G1 X182.075 Y175.565 E183.17461
G1 X181.786 Y176.524 E183.26926
G1 X181.679 Y176.803 E183.2975
G1 X181.245 Y177.724 E183.39372
G1 X181.105 Y177.971 E183.42055
G1 X180.651 Y178.668 E183.49915
G1 X180.531 Y178.83 E183.5182
G1 X179.999 Y179.465 E183.59649
G1 X179.796 Y179.679 E183.62436
G1 X179.034 Y180.369 E183.72151
G1 X178.8 Y180.551 E183.74952
G1 X177.966 Y181.107 E183.84424
G1 X177.711 Y181.251 E183.87192
G1 X176.817 Y181.673 E183.96534
G1 X176.543 Y181.779 E183.9931
G1 X175.562 Y182.076 E184.08996
G1 X175.274 Y182.14 E184.11784
G1 X174.475 Y182.269 E184.19432
G1 X174.276 Y182.289 E184.21322
G1 X173.687 Y182.322 E184.26897
G1 X173.448 Y182.325 E184.29156
G1 X49.407 Y182.324 E196.01343
G1 X48.694 Y182.287 E196.0809
G1 X48.494 Y182.266 E196.09991
G1 X47.722 Y182.139 E196.17384
G1 X47.435 Y182.075 E196.20163
G1 X46.465 Y181.782 E196.29739
G1 X46.19 Y181.676 E196.32524
G1 X45.302 Y181.258 E196.41798
G1 X45.051 Y181.117 E196.44519
G1 X44.194 Y180.547 E196.54245
G1 X43.957 Y180.362 E196.57087
G1 X43.228 Y179.703 E196.66373
G1 X43.023 Y179.489 E196.69174
G1 X42.542 Y178.929 E196.7615
G1 X42.057 Y178.23 E196.8419
G1 X41.681 Y177.594 E196.91172
G1 X41.368 Y176.917 E196.9822
G1 X41.047 Y176.024 E197.07187
G1 X40.968 Y175.744 E197.09937
G1 X40.761 Y174.703 E197.19967
G1 X40.726 Y174.411 E197.22746
G1 X40.678 Y173.689 E197.29584
G1 X40.675 Y173.448 E197.31862
G1 X40.675 Y49.525 E209.02934
G1 X40.692 Y48.995 E209.07945
G1 X40.785 Y48.14 E209.16072
G1 X40.835 Y47.851 E209.18844
G1 X41.071 Y46.899 E209.28113
G1 X41.162 Y46.62 E209.30886
G1 X41.429 Y45.931 E209.37869
G1 X41.808 Y45.188 E209.45751
G1 X42.349 Y44.332 E209.5532
G1 X42.469 Y44.17 E209.57225
G1 X43.001 Y43.535 E209.65054
G1 X43.204 Y43.321 E209.67841
G0 F4500 X43.458 Y43.562
G1 F1800 X44.202 Y42.891 E209.77309
G1 X44.438 Y42.709 E209.80125
G1 X45.201 Y42.202 E209.88782
G1 X45.457 Y42.057 E209.91563
G1 X46.312 Y41.652 E210.00503
G1 X46.586 Y41.546 E210.03279
G1 X47.538 Y41.26 E210.12673
G1 X47.826 Y41.197 E210.15459
G1 X48.794 Y41.06 E210.24698
G1 X49.552 Y41.025 E210.31868
G1 X173.593 Y41.026 E222.04056
G1 X174.269 Y41.061 E222.10453
G1 X174.469 Y41.082 E222.12353
G1 X175.202 Y41.202 E222.19372
G1 X175.489 Y41.266 E222.22151
G1 X176.409 Y41.544 E222.31233
G1 X176.684 Y41.65 E222.34018
G1 X177.526 Y42.047 E222.42815
G1 X177.777 Y42.188 E222.45536
G1 X178.46 Y42.63 E222.53224
G1 X178.622 Y42.75 E222.55129
G1 X179.224 Y43.255 E222.62554
G1 X179.438 Y43.458 E222.65342
G1 X180.109 Y44.202 E222.7481
G1 X180.291 Y44.438 E222.77626
G1 X180.798 Y45.201 E222.86283
G1 X180.943 Y45.457 E222.89063
G1 X181.345 Y46.304 E222.97923
G1 X181.451 Y46.577 E223.00691
G1 X181.741 Y47.542 E223.10213
G1 X181.804 Y47.831 E223.13008
G1 X181.94 Y48.794 E223.22199
G1 X181.975 Y49.552 E223.2937
G1 X181.974 Y173.593 E235.01557
G1 X181.939 Y174.269 E235.07954
G1 X181.918 Y174.469 E235.09854
G1 X181.798 Y175.202 E235.16873
G1 X181.734 Y175.489 E235.19652
G1 X181.46 Y176.399 E235.28633
G1 X181.353 Y176.678 E235.31457
G1 X180.94 Y177.552 E235.40592
G1 X180.8 Y177.799 E235.43275
G1 X180.37 Y178.46 E235.50727
G1 X180.25 Y178.622 E235.52632
G1 X179.745 Y179.224 E235.60057
G1 X179.542 Y179.438 E235.62845
G1 X178.819 Y180.093 E235.72064
G1 X178.585 Y180.275 E235.74865
G1 X177.794 Y180.802 E235.83847
G1 X177.539 Y180.946 E235.86615
G1 X176.691 Y181.347 E235.95479
G1 X176.417 Y181.453 E235.98255
G1 X175.486 Y181.735 E236.07448
G1 X175.198 Y181.799 E236.10236
G1 X174.44 Y181.921 E236.17491
G1 X174.241 Y181.941 E236.19381
G1 X173.683 Y181.972 E236.24663
G1 X173.448 Y181.975 E236.26884
G1 X49.407 Y181.974 E247.99071
G1 X48.731 Y181.939 E248.05468
G1 X48.531 Y181.918 E248.07368
G1 X47.798 Y181.798 E248.14387
G1 X47.511 Y181.734 E248.17166
G1 X46.591 Y181.456 E248.26248
G1 X46.316 Y181.35 E248.29033
G1 X45.474 Y180.953 E248.3783
G1 X45.223 Y180.812 E248.40551
G1 X44.41 Y180.271 E248.49779
G1 X44.173 Y180.086 E248.52621
G1 X43.481 Y179.461 E248.61432
G1 X43.276 Y179.247 E248.64233
G1 X42.808 Y178.701 E248.71028
G1 X42.348 Y178.036 E248.7867
G1 X41.983 Y177.416 E248.85469
G1 X41.688 Y176.777 E248.9212
G1 X41.384 Y175.929 E249.00633
G1 X41.305 Y175.649 E249.03382
G1 X41.108 Y174.662 E249.12893
G1 X41.073 Y174.37 E249.15672
G1 X41.028 Y173.685 E249.22159
G1 X41.025 Y173.448 E249.24399
G1 X41.025 Y49.525 E260.95472
G1 X41.042 Y49.011 E261.00331
G1 X41.13 Y48.2 E261.0804
G1 X41.18 Y47.911 E261.10812
G1 X41.404 Y47.007 E261.19613
G1 X41.495 Y46.728 E261.22386
G1 X41.756 Y46.058 E261.29181
G1 X42.117 Y45.352 E261.36675
G1 X42.63 Y44.54 E261.45751
G1 X42.75 Y44.378 E261.47656
G1 X43.255 Y43.776 E261.55082
G1 X43.458 Y43.562 E261.57869
G0 F4500 X43.712 Y43.803
G1 F1800 X44.416 Y43.168 E261.66829
G1 X44.652 Y42.986 E261.69645
G1 X45.373 Y42.507 E261.77825
G1 X45.629 Y42.362 E261.80605
G1 X46.438 Y41.979 E261.89064
G1 X46.712 Y41.873 E261.9184
G1 X47.613 Y41.601 E262.00734
G1 X47.901 Y41.538 E262.0352
G1 X48.817 Y41.41 E262.1226
G1 X49.552 Y41.375 E262.19214
G1 X173.593 Y41.376 E273.91401
G1 X174.233 Y41.409 E273.97457
G1 X174.433 Y41.43 E273.99358
G1 X175.126 Y41.544 E274.05995
G1 X175.413 Y41.608 E274.08773
G1 X176.283 Y41.871 E274.17362
G1 X176.558 Y41.977 E274.20147
G1 X177.355 Y42.352 E274.28471
G1 X177.606 Y42.493 E274.31192
G1 X178.252 Y42.911 E274.38463
G1 X178.414 Y43.031 E274.40368
G1 X178.983 Y43.509 E274.47391
G1 X179.197 Y43.712 E274.50178
G1 X179.832 Y44.416 E274.59137
G1 X180.014 Y44.652 E274.61954
G1 X180.493 Y45.373 E274.70134
G1 X180.638 Y45.629 E274.72914
G1 X181.019 Y46.431 E274.81305
G1 X181.125 Y46.704 E274.84072
G1 X181.399 Y47.616 E274.93071
G1 X181.462 Y47.905 E274.95866
G1 X181.59 Y48.817 E275.04569
G1 X181.625 Y49.552 E275.11523
G1 X181.624 Y173.593 E286.8371
G1 X181.591 Y174.233 E286.89766
G1 X181.57 Y174.433 E286.91667
