;FLAVOR:Marlin
;TIME:17855
;Filament used: 24.4099m
;Layer height: 0.2
;MINX:28.2
;MINY:28.2
;MINZ:0.3
;MAXX:171.8
;MAXY:171.8
;MAXZ:4.1
;Generated with Cura_SteamEngine master
M140 S60
M105
M190 S60
M104 S200
M105
M109 S200
M82 ;absolute extrusion mode
G21 ;metric values
 G90 ;absolute positioning
 M82 ;set extruder to absolute mode
 M107 ;start with the fan off
 G28 X0 Y0 ;move X/Y to min endstops
 G28 Z0 ;move Z to min endstops
 G1 Z15.0 F120 ;move the platform down 15mm
 G92 E0 ;zero the extruded length
 G1 F200 E6 ;extrude 6 mm of feed stock
 G92 E0 ;zero the extruded length again
 G1 F120 
 ;Put printing message on LCD screen
 M117 Printing...
G92 E0
G92 E0
G1 F1500 E-6.5
;LAYER_COUNT:20
;LAYER:0
M107
G0 F3600 X30.997 Y31.15 Z0.3
;TYPE:SKIRT
G1 F1500 E0
G1 F1800 X31.569 Y30.605 E0.03942
G1 X32.129 Y30.159 E0.07513
G1 X33.048 Y29.549 E0.13016
G1 X33.304 Y29.404 E0.14484
G1 X34.334 Y28.916 E0.2017
G1 X34.608 Y28.81 E0.21636
G1 X35.358 Y28.563 E0.25576
G1 X36.043 Y28.402 E0.29086
G1 X36.822 Y28.273 E0.33026
G1 X37.566 Y28.216 E0.36748
G1 X38.058 Y28.2 E0.39204
G1 X162.093 Y28.201 E6.58017
G1 X162.908 Y28.244 E6.62089
G1 X163.108 Y28.265 E6.63092
G1 X163.991 Y28.409 E6.67556
G1 X164.278 Y28.473 E6.69023
G1 X165.385 Y28.808 E6.74793
G1 X165.66 Y28.914 E6.76263
G1 X166.69 Y29.4 E6.81945
G1 X166.945 Y29.544 E6.83406
G1 X167.908 Y30.186 E6.89181
G1 X168.14 Y30.367 E6.90649
G1 X168.975 Y31.122 E6.96265
G1 X169.179 Y31.335 E6.97736
G1 X169.851 Y32.138 E7.0296
G1 X169.969 Y32.3 E7.0396
G1 X170.451 Y33.048 E7.084
G1 X170.596 Y33.304 E7.09867
G1 X171.08 Y34.325 E7.15505
G1 X171.186 Y34.598 E7.16966
G1 X171.434 Y35.347 E7.20902
G1 X171.599 Y36.049 E7.245
G1 X171.762 Y37.218 E7.30388
G1 X171.8 Y38.058 E7.34583
G1 X171.799 Y162.093 E13.53396
G1 X171.756 Y162.908 E13.57468
G1 X171.735 Y163.108 E13.58471
G1 X171.591 Y163.991 E13.62935
G1 X171.527 Y164.278 E13.64402
G1 X171.197 Y165.373 E13.70108
G1 X171.09 Y165.652 E13.71598
G1 X170.584 Y166.72 E13.77495
G1 X170.441 Y166.971 E13.78936
G1 X169.814 Y167.908 E13.8456
G1 X169.633 Y168.14 E13.86029
G1 X168.878 Y168.975 E13.91645
G1 X168.665 Y169.179 E13.93116
G1 X168.068 Y169.696 E13.97056
G1 X167.489 Y170.113 E14.00616
G1 X166.524 Y170.688 E14.0622
G1 X166.261 Y170.82 E14.07688
G1 X165.398 Y171.19 E14.12373
G1 X165.217 Y171.255 E14.13332
G1 X164.273 Y171.528 E14.18235
G1 X163.985 Y171.592 E14.19707
G1 X163.073 Y171.739 E14.24316
G1 X162.874 Y171.759 E14.25314
G1 X162.197 Y171.797 E14.28696
G1 X161.942 Y171.8 E14.29969
G1 X37.907 Y171.799 E20.48782
G1 X37.092 Y171.756 E20.52854
G1 X36.892 Y171.735 E20.53857
G1 X36.009 Y171.591 E20.5832
G1 X35.722 Y171.527 E20.59787
G1 X34.615 Y171.192 E20.65558
G1 X34.34 Y171.086 E20.67028
G1 X33.303 Y170.596 E20.7275
G1 X33.045 Y170.45 E20.74229
G1 X32.08 Y169.805 E20.8002
G1 X31.85 Y169.625 E20.81477
G1 X31.024 Y168.877 E20.87036
G1 X30.82 Y168.664 E20.88508
G1 X30.303 Y168.067 E20.92448
G1 X29.883 Y167.484 E20.96033
G1 X29.312 Y166.524 E21.01605
G1 X29.181 Y166.263 E21.03062
G1 X28.747 Y165.215 E21.08721
G1 X28.655 Y164.937 E21.10182
G1 X28.373 Y163.807 E21.15993
G1 X28.323 Y163.516 E21.17466
G1 X28.216 Y162.503 E21.22548
G1 X28.2 Y161.942 E21.25348
G1 X28.2 Y38.028 E27.43557
G1 X28.218 Y37.456 E27.46412
G1 X28.324 Y36.474 E27.5134
G1 X28.374 Y36.185 E27.52803
G1 X28.644 Y35.096 E27.58401
G1 X28.735 Y34.817 E27.59865
G1 X29.018 Y34.08 E27.63804
G1 X29.33 Y33.442 E27.67347
G1 X29.895 Y32.499 E27.72831
G1 X30.063 Y32.259 E27.74293
G1 X30.794 Y31.364 E27.80058
G1 X30.997 Y31.15 E27.8153
G0 F3600 X31.287 Y31.425
G1 F1800 X32.137 Y30.658 E27.87242
G1 X32.373 Y30.476 E27.88729
G1 X33.245 Y29.897 E27.93951
G1 X33.501 Y29.752 E27.95418
G1 X34.478 Y29.289 E28.00812
G1 X34.752 Y29.183 E28.02278
G1 X35.841 Y28.856 E28.07951
G1 X36.129 Y28.793 E28.09422
G1 X37.243 Y28.637 E28.15034
G1 X38.058 Y28.6 E28.19104
G1 X162.093 Y28.601 E34.37917
G1 X162.866 Y28.641 E34.41779
G1 X163.066 Y28.662 E34.42782
G1 X163.904 Y28.799 E34.47018
G1 X164.191 Y28.863 E34.48485
G1 X165.241 Y29.181 E34.53959
G1 X165.516 Y29.287 E34.55429
G1 X166.494 Y29.748 E34.60823
G1 X166.749 Y29.892 E34.62284
G1 X167.662 Y30.502 E34.67762
G1 X167.894 Y30.683 E34.6923
G1 X168.686 Y31.399 E34.74557
G1 X168.89 Y31.612 E34.76028
G1 X169.527 Y32.373 E34.8098
G1 X169.645 Y32.535 E34.8198
G1 X170.103 Y33.245 E34.86195
G1 X170.248 Y33.501 E34.87663
G1 X170.707 Y34.47 E34.93012
G1 X170.813 Y34.743 E34.94473
G1 X171.145 Y35.845 E35.00215
G1 X171.208 Y36.134 E35.01691
G1 X171.363 Y37.243 E35.07277
G1 X171.4 Y38.058 E35.11347
G1 X171.399 Y162.093 E41.30161
G1 X171.359 Y162.866 E41.34022
G1 X171.338 Y163.066 E41.35026
G1 X171.201 Y163.904 E41.39262
G1 X171.137 Y164.191 E41.40729
G1 X170.823 Y165.23 E41.46144
G1 X170.716 Y165.509 E41.47635
G1 X170.237 Y166.522 E41.53225
G1 X170.094 Y166.773 E41.54666
G1 X169.498 Y167.662 E41.60006
G1 X169.317 Y167.894 E41.61474
G1 X168.601 Y168.686 E41.66801
G1 X168.388 Y168.89 E41.68272
G1 X167.505 Y169.614 E41.73969
G1 X167.26 Y169.785 E41.7546
G1 X166.344 Y170.331 E41.8078
G1 X166.081 Y170.463 E41.82248
G1 X165.263 Y170.814 E41.86689
G1 X165.082 Y170.879 E41.87648
G1 X164.186 Y171.138 E41.92301
G1 X163.898 Y171.202 E41.93773
G1 X163.033 Y171.341 E41.98144
G1 X162.834 Y171.361 E41.99142
G1 X162.191 Y171.397 E42.02355
G1 X161.942 Y171.4 E42.03597
G1 X37.907 Y171.399 E48.2241
G1 X37.134 Y171.359 E48.26272
G1 X36.934 Y171.338 E48.27275
G1 X36.096 Y171.201 E48.31512
G1 X35.809 Y171.137 E48.32979
G1 X34.759 Y170.819 E48.38452
G1 X34.484 Y170.713 E48.39923
G1 X33.5 Y170.248 E48.45352
G1 X33.242 Y170.102 E48.46831
G1 X32.326 Y169.49 E48.52327
G1 X32.096 Y169.31 E48.53784
G1 X31.313 Y168.6 E48.59058
G1 X31.109 Y168.387 E48.60529
G1 X30.381 Y167.499 E48.66258
G1 X30.211 Y167.255 E48.67742
G1 X29.669 Y166.345 E48.73026
G1 X29.538 Y166.084 E48.74483
G1 X29.127 Y165.089 E48.79854
G1 X29.035 Y164.811 E48.81315
G1 X28.767 Y163.739 E48.86827
G1 X28.717 Y163.448 E48.883
G1 X28.616 Y162.487 E48.93121
G1 X28.6 Y161.942 E48.95842
G1 X28.6 Y38.028 E55.14051
G1 X28.617 Y37.474 E55.16816
G1 X28.718 Y36.542 E55.21493
G1 X28.768 Y36.253 E55.22956
G1 X29.025 Y35.22 E55.28267
G1 X29.116 Y34.941 E55.29731
G1 X29.552 Y33.887 E55.35422
G1 X29.686 Y33.623 E55.36899
G1 X30.223 Y32.728 E55.42106
G1 X30.391 Y32.488 E55.43568
G1 X31.084 Y31.639 E55.49035
G1 X31.287 Y31.425 E55.50507
G0 F3600 X31.577 Y31.7
G1 F1800 X32.381 Y30.975 E55.55908
G1 X32.617 Y30.793 E55.57395
G1 X33.442 Y30.245 E55.62336
G1 X33.698 Y30.1 E55.63804
G1 X34.622 Y29.663 E55.68903
G1 X34.896 Y29.557 E55.70369
G1 X35.926 Y29.247 E55.75736
G1 X36.214 Y29.184 E55.77206
G1 X37.268 Y29.036 E55.82516
G1 X38.058 Y29 E55.86462
G1 X162.093 Y29.001 E62.05275
G1 X162.824 Y29.039 E62.08927
G1 X163.024 Y29.06 E62.0993
G1 X163.817 Y29.19 E62.13939
G1 X164.104 Y29.254 E62.15406
G1 X165.098 Y29.554 E62.20586
G1 X165.373 Y29.66 E62.22057
G1 X166.297 Y30.097 E62.27156
G1 X166.552 Y30.241 E62.28617
G1 X167.416 Y30.817 E62.33798
G1 X167.648 Y30.998 E62.35266
G1 X168.397 Y31.675 E62.40303
G1 X168.601 Y31.888 E62.41774
G1 X169.204 Y32.609 E62.46463
G1 X169.322 Y32.771 E62.47463
G1 X169.755 Y33.442 E62.51447
G1 X169.9 Y33.698 E62.52915
G1 X170.334 Y34.614 E62.57972
G1 X170.44 Y34.887 E62.59433
G1 X170.754 Y35.93 E62.64867
G1 X170.817 Y36.219 E62.66343
G1 X170.964 Y37.268 E62.71628
G1 X171 Y38.058 E62.75573
G1 X170.999 Y162.093 E68.94386
G1 X170.961 Y162.824 E68.98038
G1 X170.94 Y163.024 E68.99042
G1 X170.81 Y163.817 E69.03051
G1 X170.746 Y164.104 E69.04518
G1 X170.45 Y165.087 E69.09639
G1 X170.343 Y165.366 E69.1113
G1 X169.889 Y166.324 E69.16419
G1 X169.746 Y166.575 E69.1786
G1 X169.183 Y167.416 E69.2291
G1 X169.002 Y167.648 E69.24378
G1 X168.325 Y168.397 E69.29415
G1 X168.112 Y168.601 E69.30886
G1 X167.276 Y169.286 E69.36278
G1 X167.031 Y169.457 E69.37769
G1 X166.165 Y169.973 E69.42798
G1 X165.902 Y170.105 E69.44266
G1 X165.128 Y170.437 E69.48468
G1 X164.947 Y170.502 E69.49427
G1 X164.1 Y170.747 E69.53826
G1 X163.812 Y170.811 E69.55298
G1 X162.993 Y170.943 E69.59437
G1 X162.794 Y170.963 E69.60435
G1 X162.186 Y170.997 E69.63473
G1 X161.942 Y171 E69.6469
G1 X37.907 Y170.999 E75.83503
G1 X37.176 Y170.961 E75.87155
G1 X36.976 Y170.94 E75.88159
G1 X36.183 Y170.81 E75.92168
G1 X35.896 Y170.746 E75.93635
G1 X34.902 Y170.446 E75.98815
G1 X34.627 Y170.34 E76.00285
G1 X33.697 Y169.9 E76.05418
G1 X33.439 Y169.754 E76.06897
G1 X32.573 Y169.175 E76.12094
G1 X32.343 Y168.995 E76.13551
G1 X31.602 Y168.324 E76.18539
G1 X31.398 Y168.111 E76.2001
G1 X30.71 Y167.271 E76.25427
G1 X30.54 Y167.027 E76.26911
G1 X30.027 Y166.165 E76.31915
G1 X29.896 Y165.904 E76.33372
G1 X29.506 Y164.963 E76.38454
G1 X29.414 Y164.685 E76.39915
G1 X29.161 Y163.671 E76.45129
G1 X29.111 Y163.38 E76.46602
G1 X29.015 Y162.471 E76.51162
G1 X29 Y161.942 E76.53802
G1 X29 Y38.028 E82.72012
G1 X29.017 Y37.492 E82.74687
G1 X29.112 Y36.611 E82.79108
G1 X29.162 Y36.322 E82.80571
G1 X29.405 Y35.344 E82.85599
G1 X29.496 Y35.065 E82.87063
G1 X29.909 Y34.068 E82.92447
G1 X30.043 Y33.804 E82.93924
G1 X30.55 Y32.958 E82.98845
G1 X30.718 Y32.718 E83.00306
G1 X31.374 Y31.914 E83.05483
G1 X31.577 Y31.7 E83.06955
G0 F3600 X31.868 Y31.976
G1 F1800 X32.625 Y31.292 E83.12045
G1 X32.861 Y31.11 E83.13532
G1 X33.639 Y30.593 E83.18192
G1 X33.895 Y30.448 E83.1966
G1 X34.767 Y30.036 E83.24471
G1 X35.041 Y29.93 E83.25937
G1 X36.012 Y29.637 E83.30997
G1 X36.3 Y29.574 E83.32468
G1 X37.294 Y29.435 E83.37475
G1 X38.058 Y29.4 E83.41291
G1 X162.093 Y29.401 E89.60104
G1 X162.782 Y29.437 E89.63546
G1 X162.982 Y29.458 E89.6455
G1 X163.729 Y29.58 E89.68326
G1 X164.016 Y29.644 E89.69793
G1 X164.954 Y29.928 E89.74682
G1 X165.229 Y30.034 E89.76153
G1 X166.1 Y30.445 E89.80958
G1 X166.355 Y30.589 E89.82419
G1 X167.17 Y31.132 E89.87304
G1 X167.402 Y31.313 E89.88772
G1 X168.109 Y31.952 E89.93527
G1 X168.313 Y32.165 E89.94998
G1 X168.881 Y32.844 E89.99415
G1 X168.999 Y33.006 E90.00415
G1 X169.407 Y33.639 E90.04172
G1 X169.552 Y33.895 E90.0564
G1 X169.961 Y34.759 E90.10409
G1 X170.067 Y35.032 E90.1187
G1 X170.364 Y36.015 E90.16993
G1 X170.427 Y36.304 E90.18469
G1 X170.565 Y37.294 E90.23456
G1 X170.6 Y38.058 E90.27271
G1 X170.599 Y162.093 E96.46084
G1 X170.563 Y162.782 E96.49527
G1 X170.542 Y162.982 E96.5053
G1 X170.42 Y163.729 E96.54306
G1 X170.356 Y164.016 E96.55773
G1 X170.076 Y164.943 E96.60604
G1 X169.969 Y165.222 E96.62095
G1 X169.542 Y166.126 E96.67083
G1 X169.399 Y166.377 E96.68524
G1 X168.868 Y167.17 E96.73285
G1 X168.687 Y167.402 E96.74753
G1 X168.048 Y168.109 E96.79508
G1 X167.835 Y168.313 E96.80979
G1 X167.047 Y168.958 E96.8606
G1 X166.802 Y169.129 E96.8755
G1 X165.986 Y169.616 E96.92291
G1 X165.723 Y169.748 E96.93759
G1 X164.993 Y170.061 E96.97722
G1 X164.812 Y170.126 E96.98681
G1 X164.013 Y170.357 E97.02831
G1 X163.725 Y170.421 E97.04303
G1 X162.953 Y170.545 E97.08204
G1 X162.754 Y170.565 E97.09202
G1 X162.181 Y170.597 E97.12065
G1 X161.942 Y170.6 E97.13257
G1 X37.907 Y170.599 E103.3207
G1 X37.218 Y170.563 E103.35512
G1 X37.018 Y170.542 E103.36516
G1 X36.271 Y170.42 E103.40292
G1 X35.984 Y170.356 E103.41759
G1 X35.046 Y170.072 E103.46648
G1 X34.771 Y169.966 E103.48119
G1 X33.894 Y169.552 E103.52957
G1 X33.636 Y169.406 E103.54436
G1 X32.819 Y168.86 E103.59339
G1 X32.589 Y168.68 E103.60796
G1 X31.89 Y168.047 E103.655
G1 X31.686 Y167.834 E103.66972
G1 X31.038 Y167.042 E103.72077
G1 X30.868 Y166.798 E103.73561
G1 X30.384 Y165.986 E103.78277
G1 X30.253 Y165.725 E103.79734
G1 X29.886 Y164.838 E103.84523
G1 X29.794 Y164.56 E103.85984
G1 X29.555 Y163.604 E103.909
G1 X29.505 Y163.313 E103.92373
G1 X29.415 Y162.456 E103.96672
G1 X29.4 Y161.942 E103.99238
G1 X29.4 Y38.028 E110.17447
G1 X29.417 Y37.51 E110.20033
G1 X29.507 Y36.679 E110.24203
G1 X29.557 Y36.39 E110.25666
G1 X29.785 Y35.468 E110.30405
G1 X29.876 Y35.189 E110.31869
G1 X30.266 Y34.249 E110.36946
G1 X30.4 Y33.985 E110.38423
G1 X30.878 Y33.187 E110.43064
G1 X31.046 Y32.947 E110.44526
G1 X31.665 Y32.19 E110.49404
G1 X31.868 Y31.976 E110.50876
G0 F3600 X32.158 Y32.251
G1 F1800 X32.87 Y31.608 E110.55662
G1 X33.106 Y31.426 E110.57149
G1 X33.836 Y30.941 E110.61522
G1 X34.092 Y30.796 E110.62989
G1 X34.911 Y30.409 E110.67509
G1 X35.185 Y30.303 E110.68974
G1 X36.097 Y30.028 E110.73727
G1 X36.385 Y29.965 E110.75197
G1 X37.319 Y29.834 E110.79903
G1 X38.058 Y29.8 E110.83594
G1 X162.093 Y29.801 E117.02407
G1 X162.74 Y29.835 E117.05639
G1 X162.94 Y29.856 E117.06642
G1 X163.642 Y29.971 E117.10191
G1 X163.929 Y30.035 E117.11658
G1 X164.81 Y30.301 E117.1625
G1 X165.085 Y30.407 E117.1772
G1 X165.904 Y30.793 E117.22237
G1 X166.159 Y30.937 E117.23698
G1 X166.924 Y31.448 E117.28288
G1 X167.156 Y31.629 E117.29756
G1 X167.82 Y32.229 E117.34221
G1 X168.024 Y32.442 E117.35692
G1 X168.557 Y33.08 E117.3984
G1 X168.675 Y33.242 E117.4084
G1 X169.059 Y33.836 E117.44368
G1 X169.204 Y34.092 E117.45836
G1 X169.589 Y34.904 E117.5032
G1 X169.695 Y35.177 E117.51781
G1 X169.973 Y36.1 E117.5659
G1 X170.036 Y36.389 E117.58066
G1 X170.166 Y37.319 E117.62751
G1 X170.2 Y38.058 E117.66441
G1 X170.199 Y162.093 E123.85254
G1 X170.165 Y162.74 E123.88487
G1 X170.144 Y162.94 E123.8949
G1 X170.029 Y163.642 E123.93039
G1 X169.965 Y163.929 E123.94506
G1 X169.703 Y164.8 E123.99044
G1 X169.596 Y165.079 E124.00535
G1 X169.194 Y165.928 E124.05221
G1 X169.051 Y166.179 E124.06662
G1 X168.552 Y166.924 E124.11136
G1 X168.371 Y167.156 E124.12604
G1 X167.771 Y167.82 E124.17069
G1 X167.558 Y168.024 E124.1854
G1 X166.818 Y168.63 E124.23312
G1 X166.573 Y168.801 E124.24803
G1 X165.806 Y169.258 E124.29257
G1 X165.543 Y169.39 E124.30725
G1 X164.857 Y169.684 E124.34449
G1 X164.676 Y169.749 E124.35408
G1 X163.926 Y169.966 E124.39303
G1 X163.638 Y170.03 E124.40775
G1 X162.913 Y170.147 E124.44439
G1 X162.714 Y170.167 E124.45437
G1 X162.176 Y170.197 E124.48125
G1 X161.942 Y170.2 E124.49293
G1 X37.907 Y170.199 E130.68106
G1 X37.26 Y170.165 E130.71338
G1 X37.06 Y170.144 E130.72341
G1 X36.358 Y170.029 E130.7589
G1 X36.071 Y169.965 E130.77357
G1 X35.19 Y169.699 E130.81949
G1 X34.915 Y169.593 E130.83419
G1 X34.091 Y169.204 E130.87965
G1 X33.833 Y169.058 E130.89444
G1 X33.066 Y168.545 E130.94048
G1 X32.836 Y168.365 E130.95505
G1 X32.179 Y167.77 E130.99927
G1 X31.975 Y167.557 E131.01398
G1 X31.366 Y166.813 E131.06195
G1 X31.196 Y166.569 E131.07679
G1 X30.742 Y165.806 E131.12108
G1 X30.611 Y165.545 E131.13565
G1 X30.266 Y164.712 E131.18063
G1 X30.174 Y164.434 E131.19524
G1 X29.95 Y163.536 E131.24142
G1 X29.9 Y163.245 E131.25615
G1 X29.815 Y162.44 E131.29653
G1 X29.8 Y161.942 E131.32139
G1 X29.8 Y38.028 E137.50348
G1 X29.816 Y37.527 E137.52849
G1 X29.901 Y36.747 E137.56764
G1 X29.951 Y36.458 E137.58227
G1 X30.166 Y35.592 E137.62679
G1 X30.257 Y35.313 E137.64143
G1 X30.622 Y34.43 E137.6891
G1 X30.756 Y34.166 E137.70387
G1 X31.206 Y33.417 E137.74746
G1 X31.374 Y33.177 E137.76207
G1 X31.955 Y32.465 E137.80792
G1 X32.158 Y32.251 E137.82264
G0 F3600 X32.448 Y32.526
G1 F1800 X33.114 Y31.925 E137.86739
G1 X33.35 Y31.743 E137.88226
G1 X34.034 Y31.289 E137.92322
G1 X34.29 Y31.144 E137.9379
G1 X35.055 Y30.782 E137.98012
G1 X35.329 Y30.676 E137.99478
G1 X36.183 Y30.419 E138.03927
G1 X36.471 Y30.356 E138.05398
G1 X37.344 Y30.234 E138.09796
G1 X38.058 Y30.2 E138.13362
G1 X162.093 Y30.201 E144.32175
G1 X162.699 Y30.233 E144.35203
G1 X162.899 Y30.254 E144.36206
G1 X163.555 Y30.361 E144.39522
G1 X163.842 Y30.425 E144.40989
G1 X164.666 Y30.674 E144.45284
G1 X164.941 Y30.78 E144.46754
G1 X165.707 Y31.142 E144.50981
G1 X165.962 Y31.286 E144.52442
G1 X166.678 Y31.763 E144.56734
G1 X166.91 Y31.944 E144.58202
G1 X167.531 Y32.505 E144.62377
G1 X167.735 Y32.718 E144.63849
G1 X168.234 Y33.315 E144.67731
G1 X168.352 Y33.477 E144.68731
G1 X168.711 Y34.034 E144.72037
G1 X168.856 Y34.29 E144.73504
G1 X169.216 Y35.049 E144.77695
G1 X169.322 Y35.322 E144.79157
G1 X169.582 Y36.186 E144.83658
G1 X169.645 Y36.475 E144.85134
G1 X169.766 Y37.344 E144.89511
G1 X169.8 Y38.058 E144.93077
G1 X169.799 Y162.093 E151.1189
G1 X169.767 Y162.699 E151.14918
G1 X169.746 Y162.899 E151.15921
G1 X169.639 Y163.555 E151.19237
G1 X169.575 Y163.842 E151.20704
G1 X169.329 Y164.657 E151.24951
